config/expand/iconfont/module-menu/module-gongdanguanli_active.svg

<?xml version="1.0" encoding="UTF-8"?>
<svg width="19px" height="20px" viewBox="0 0 19 20" version="1.1" xmlns="http://www.w3.org/2000/svg" xmlns:xlink="http://www.w3.org/1999/xlink">
    <!-- Generator: Sketch 53 (72520) - https://sketchapp.com -->
    <title>gongdanguanliActive</title>
    <desc>Created with Sketch.</desc>
    <defs>
        <linearGradient x1="14.3387761%" y1="50%" x2="100%" y2="50%" id="linearGradient-1">
            <stop stop-color="#FFFFFF" offset="0%"></stop>
            <stop stop-color="#FFFFFF" offset="100%"></stop>
        </linearGradient>
        <linearGradient x1="14.3387761%" y1="50%" x2="100%" y2="50%" id="linearGradient-2">
            <stop stop-color="#FFFFFF" offset="0%"></stop>
            <stop stop-color="#FFFFFF" offset="100%"></stop>
        </linearGradient>
        <linearGradient x1="14.3387761%" y1="50%" x2="100%" y2="50%" id="linearGradient-3">
            <stop stop-color="#FFFFFF" offset="0%"></stop>
            <stop stop-color="#FFFFFF" offset="100%"></stop>
        </linearGradient>
    </defs>
    <g id="Page-2" stroke="none" stroke-width="1" fill="none" fill-rule="evenodd">
        <g id="图标" transform="translate(-897.000000, -642.000000)">
            <g id="gongdanguanliActive" transform="translate(897.000000, 642.000000)">
                <path d="M4,6.28571429 L4,7.71428571 C4,7.87142857 4.08510638,8 4.1891253,8 L11.8108747,8 C11.9148936,8 12,7.87142857 12,7.71428571 L12,6.28571429 C12,6.12857143 11.9148936,6 11.8108747,6 L4.1891253,6 C4.08510638,6 4,6.12857143 4,6.28571429 Z M7.80952381,10 L4.19047619,10 C4.08571429,10 4,10.1285714 4,10.2857143 L4,11.7142857 C4,11.8714286 4.08571429,12 4.19047619,12 L7.80952381,12 C7.91428571,12 8,11.8714286 8,11.7142857 L8,10.2857143 C8,10.1285714 7.91428571,10 7.80952381,10 Z" id="Shape" fill="url(#linearGradient-1)"></path>
                <path d="M15.28,2.58928571 L1.15,2.58928571 C0.59771525,2.58928571 0.15,3.03700096 0.15,3.58928571 L0.15,17 L0.15,19.2857143 C0.15,19.6808036 0.47175,20 0.87,20 L15.28,20 C15.67825,20 16,19.6808036 16,19.2857143 L16,3.30357143 C16,2.90848214 15.67825,2.58928571 15.28,2.58928571 Z M14.0793524,18.1657211 L2,18.1657211 L2,4.41099447 L14.0793524,4.41099447 L14.0793524,18.1657211 Z" id="Shape" fill="url(#linearGradient-2)" fill-rule="nonzero"></path>
                <path d="M11.3608005,12.0042301 C11.2842849,11.9873904 11.2048264,12.0229408 11.2048264,12.0734598 L11.2048264,13.1998469 C11.2048264,13.2410106 11.151854,13.2728188 11.090053,13.2728188 L9.90994703,13.2728188 C9.84520306,13.2728188 9.79517363,13.2391395 9.79517363,13.1998469 L9.79517363,12.0734598 C9.79517363,12.0229408 9.71571513,11.9873904 9.63919953,12.0042301 C8.68275456,12.226888 8,12.8106633 8,13.4973478 C8,14.1466108 8.61212478,14.7060622 9.49205415,14.9530441 C9.53325486,14.9642705 9.55974102,14.9923366 9.55974102,15.0204028 L9.55974102,16.9270281 C9.55974102,16.9681917 9.61271336,17 9.67451442,17 L11.3254856,17 C11.3902295,17 11.440259,16.9663207 11.440259,16.9270281 L11.440259,15.0204028 C11.440259,14.9904656 11.4667451,14.9642705 11.5079459,14.9530441 C12.3849323,14.7060622 13,14.1484819 13,13.4973478 C13,12.8106633 12.3172454,12.226888 11.3608005,12.0042301 L11.3608005,12.0042301 Z" id="Path" fill="url(#linearGradient-3)"></path>
                <path d="M6,0 L18,-2.22044605e-16 C18.5522847,-3.23497668e-16 19,0.44771525 19,1 L19,2.57291232 L16.9837295,2.57291232 L16.9837295,1.88060988 L7.75187346,1.88060988 C7.19958871,1.88060988 6.75187346,2.32832513 6.75187346,2.88060988 L6.75187346,17 L6,17 C5.44771525,17 5,16.5522847 5,16 L5,1 C5,0.44771525 5.44771525,1.01453063e-16 6,0 Z" id="Rectangle" fill="#FFFFFF" transform="translate(12.000000, 8.500000) scale(-1, 1) translate(-12.000000, -8.500000) "></path>
            </g>
        </g>
    </g>
</svg>

<svg width="19" height="20" xmlns="http://www.w3.org/2000/svg"><path d="M4 6.286v1.428c0 .157.085.286.19.286h7.62c.105 0 .19-.129.19-.286V6.286c0-.157-.085-.286-.19-.286H4.19c-.105 0-.19.129-.19.286zM7.81 10H4.19c-.104 0-.19.129-.19.286v1.428c0 .157.086.286.19.286h3.62c.104 0 .19-.129.19-.286v-1.428c0-.157-.086-.286-.19-.286z"/><path d="M15.28 2.59H1.15a1 1 0 00-1 1v15.696c0 .395.322.714.72.714h14.41c.398 0 .72-.32.72-.714V3.304a.716.716 0 00-.72-.715zm-1.2 15.576H2V4.41h12.08v13.755z"/><path d="M11.36 12.004c-.076-.017-.155.019-.155.07V13.2c0 .041-.053.073-.115.073H9.91c-.065 0-.115-.034-.115-.073v-1.127c0-.05-.08-.086-.156-.069-.956.223-1.639.807-1.639 1.493 0 .65.612 1.21 1.492 1.456.041.011.068.04.068.067v1.907c0 .041.053.073.115.073h1.65c.065 0 .115-.034.115-.073V15.02c0-.03.027-.056.068-.067.877-.247 1.492-.805 1.492-1.456 0-.686-.683-1.27-1.64-1.493zM18 0H6a1 1 0 00-1 1v1.573h2.016V1.88h9.232a1 1 0 011 1V17H18a1 1 0 001-1V1a1 1 0 00-1-1z"/></svg>
